public/assets/icons/youtube.svg

<svg xmlns="http://www.w3.org/2000/svg" width="27" height="25" fill="none" viewBox="0 0 27 25"><path stroke="#fff" stroke-width="1.286" d="M25.5544 7.07435C25.4135 6.54961 25.1372 6.07108 24.7532 5.68665C24.3692 5.30222 23.891 5.02538 23.3664 4.88382C21.4354 4.3645 13.6947 4.3645 13.6947 4.3645C13.6947 4.3645 5.95395 4.3645 4.02291 4.88106C3.49808 5.02216 3.01962 5.29885 2.63557 5.68335C2.25152 6.06785 1.97541 6.54662 1.83496 7.07159C1.31836 9.00522 1.31836 13.0382 1.31836 13.0382C1.31836 13.0382 1.31836 17.0712 1.83496 19.0021C2.1195 20.0684 2.95933 20.9081 4.02291 21.1926C5.95395 21.712 13.6947 21.712 13.6947 21.712C13.6947 21.712 21.4354 21.712 23.3664 21.1926C24.4328 20.9081 25.2698 20.0684 25.5544 19.0021C26.071 17.0712 26.071 13.0382 26.071 13.0382C26.071 13.0382 26.071 9.00522 25.5544 7.07435ZM11.236 16.7398V9.3367L17.6451 13.0106L11.236 16.7398Z"/></svg>

<svg fill="none" viewBox="0 0 27 25"><path stroke="#fff" stroke-width="1.286" d="M25.554 7.074a3.102 3.102 0 00-2.188-2.19c-1.93-.52-9.671-.52-9.671-.52s-7.741 0-9.672.517a3.097 3.097 0 00-2.188 2.19c-.517 1.934-.517 5.967-.517 5.967s0 4.033.517 5.964a3.102 3.102 0 002.188 2.19c1.931.52 9.672.52 9.672.52s7.74 0 9.671-.52a3.097 3.097 0 002.188-2.19c.517-1.93.517-5.964.517-5.964s0-4.033-.517-5.964zM11.236 16.74V9.337l6.41 3.674-6.41 3.729z"/></svg>
